X:1
T:Do Re Mi
T:Do Re Mi
T:Sonrisas y Làgrimas "The Sound of Music"
T:Richard Rodgers (1902-1960)
T:Arr. Jordi Argany
C:Richard Rodgers (1902-1960)
Z:Arr. Jordi Argany
%%score { 1 | 2 }
L:1/8
Q:1/4=120
M:4/4
K:C
V:1 treble nm="Piano" snm="Pno."
V:2 bass 
V:1
 z !1!C!2!D!3!E F!2!G!3!A!4!B | !5!cc!4!B!3!A !2!G!1!FE!1!!2!D | %2
w: Do Re Mi Fa Sol La Si|Do Do Si La Sol Fa Mi Re|
 !tenuto!.C2 .!3!E2 !tenuto!.!5!G2 .E2 | !1!C3 D !3!E3 C | E2 C2 E4 | !2!D3 E !4!FFED | !4!F8 | %7
w: Do Mi Sol Mi|Do Re Mi Do|Mi Do Mi|Re Mi Fa Fa Mi Re|Fa|
 !3!E3 !4!F !5!G3 E | G2 E2 !5!G4 | !2!F3 !3!G !4!AA!3!G!2!F | !4!A8 | !3!G3 !1!C !2!D!3!EF!2!G | %12
w: Mi Fa Sol Mi|Sol Mi Sol|Fa Sol La La Sol Fa|La|Sol Do Re Mi Fa Sol|
 !3!A8 | !5!A3 !1!D !2!E!3!^FG!2!A | !3!B8 | !5!B3 !1!E !2!^F!3!^GA!2!B | !3!c6 !4!B!3!_B | %17
w: La|La Re Mi Fa# Sol La|Si|Si Mi Fa# Sol# La Si|Do Si Sib|
 !2!A2 !1!F2 !4!B2 !1!G2 | .!5!c!1!C!2!D!3!E F!2!G!3!A!4!B | !5!c!5!c!4!B!3!A !2!G!1!FE!2!D | %20
w: La Fa Si Sol|Do Do Re Mi Fa Sol La Si|Do Do Si La Sol Fa Mi Re|
"_Do  1" !1!C2"_Sol  5" .!2!G2"_Mi  3" !fermata![CEG]4 |] %21
w: Do Re *|
V:2
 z!p!!<(! !4!!5!C,!3!D,!2!E, !1!F,G,!2!A,!1!B,!<)! | %1
w: Do Re Mi Fa Sol La Si|
!mp!!<(! !1!C!2!C!3!B,A, !2!G,!3!F,!4!E,!5!D,!<)! | %2
w: Do Do Si La Sol Fa Mi Re|
!mf!!ped! !tenuto!.C,2 .!3!E,2 !tenuto!.!1!G,2 .!3!E,2!ped-up! | !5!C,8 | C,8 | !4!D,8 | D,8 | %7
w: Do Mi Sol Mi|Do|Do|Re|Re|
 !3!E,8 | E,8 | !4!F,8 | F,8 |!f!!<(! !5!E,8!<)! | !4!F,8 |!<(! !3!^F,8!<)! | !3!G,8 | %15
w: Mi|Mi|Fa|Fa|Mi|Fa|Fa#|Sol|
!<(! !2!^G,8!<)! | !1!A,6!mf! !2!G,!3!_G, |!f! !4!F,2 !2!A,2 !3!G,2 !2!B,2 | %18
w: Sol#|La Sol Solb|Fa La Sol Si|
 .!1!C!mp!!<(!!5!C,!4!D,!3!E, !2!F,!1!G,A,!2!B,!<)! | %19
w: Do Do Re Mi Fa Sol La Si|
 !1!C!f!!>(!!1!C!2!B,!3!A, G,!2!F,!3!E,!4!D,!>)! |!mp! !5!C,2 .!1!G,2!ff! !5!C,4 |] %21
w: Do Do Si La Sol Fa Mi Re|Do Sol Do|

